X:256
T:Dainty Beesom Maker,The. RH.256
T:Rose Tree,The,aka. RH256
R:Scots Measure
S:Rev.R.Harrison’s MS,c1815,Cumbria
O:England
A:Temple Sowerby,Cumbria
Z:vmp.Simon Wilson. Review PJH, 2008.
M:C
L:1/8
Q:2/4=70
K:D
(f/e/)|d>B A>F A2A>B|d2e2 f>ee>f|\
d>B A>F A2A>B|d>fe>g fdd:|!
|:f|g>fg>a {ga}b2ag|f>ef>a bee>f|\
d>B A>F A2A>B|d>fe>g fdd:|

